X:1
T:Winster Processional
C:Traditional
M:4/4
L:1/4
Q:1/4=108
K:D
a | d a a b/2c/2 | d a b/2a/2 b/2c/2 | d a a g | F2 D2 | g b b a/2g/2 | F a a g/2F/2 | E3/2F/2 g a | A2 D2 |]
